X:11
T:Trip to Sligo, The
Z:In O'Neill's as The Lark in the Morning.
R:jig
E:10
M:6/8
I:speed 350
K:ADor
D|E2e BGE|D2d AFD|E2e BGE|GFE e2f|\
gfe dcB|ABG FED|EFG ABc|BGF E2:|*
B|eBe gfe|dAd fed|eBe gfe|faf gfe|\
faf gfe|dcB AFD|EFG ABc|BGF E2:|**
<end>
<start>
